build/images/taxi.svg

<svg width="91" height="91" viewBox="0 0 91 91" fill="none" xmlns="http://www.w3.org/2000/svg">
<rect width="91" height="91" rx="45.5" fill="#FAC663"/>
<path d="M70.8329 47.5535C70.6102 47.3285 66.378 42.0399 57.1339 41.8711C56.2429 40.2958 52.846 35.176 47.333 35.176H47.166L44.7157 30.4501C44.5487 30.1688 44.2702 30 43.9918 30H40.2051C39.871 30 39.5925 30.1688 39.4811 30.4501L37.2537 35.1198H36.5297C36.307 35.1198 31.0724 34.726 25.6151 41.8149H21.3829C20.9931 41.8149 20.6589 42.0962 20.5476 42.49C20.4919 42.8276 18.8213 50.9292 21.6056 54.4174C22.4966 55.4864 23.666 56.049 25.1139 56.049H26.2833C26.6731 58.8621 29.0677 61 31.9634 61C34.8591 61 37.2537 58.8621 37.6435 56.049H53.9041C54.2939 58.8621 56.6884 61 59.5842 61C62.4799 61 64.8744 58.8621 65.2642 56.049H70.1647C70.6102 56.049 71 55.6552 71 55.2051V48.0599C71 47.8911 70.9443 47.6661 70.8329 47.5535ZM47.333 36.8076C51.2311 36.8076 53.9041 40.0708 55.1292 41.8711H43.0451V36.8076H47.333ZM40.7619 31.6878H43.4906L45.2726 35.176H42.2098H39.0913L40.7619 31.6878ZM36.474 36.8076H41.4302V41.8711H27.7869C32.2975 36.6388 36.3627 36.8076 36.474 36.8076ZM31.9634 59.3684C29.7359 59.3684 27.8982 57.5118 27.8982 55.2613C27.8982 53.0109 29.7359 51.1543 31.9634 51.1543C34.1909 51.1543 36.0285 53.0109 36.0285 55.2613C36.0842 57.5118 34.2466 59.3684 31.9634 59.3684ZM59.5842 59.3684C57.3567 59.3684 55.519 57.5118 55.519 55.2613C55.519 53.0109 57.3567 51.1543 59.5842 51.1543C61.8116 51.1543 63.6493 53.0109 63.6493 55.2613C63.6493 57.5118 61.8673 59.3684 59.5842 59.3684ZM69.3294 54.4174H65.2642C64.8744 51.6044 62.4799 49.4664 59.5842 49.4664C56.6884 49.4664 54.2939 51.6044 53.9041 54.4174H37.6435C37.2537 51.6044 34.8591 49.4664 31.9634 49.4664C29.0677 49.4664 26.6731 51.6044 26.2833 54.4174H25.1139C24.1672 54.4174 23.4433 54.0799 22.8864 53.4047C21.1601 51.2105 21.6056 46.0907 22.0511 43.559H26.0049H56.6327C64.3732 43.559 68.4384 47.441 69.3294 48.3975V54.4174Z" fill="#FFFDFB"/>
<path d="M40.7619 31.6878H43.4906L45.2726 35.176H42.2098H39.0913L40.7619 31.6878Z" fill="#FFFDFB"/>
<path d="M31.9634 59.3684C29.7359 59.3684 27.8982 57.5118 27.8982 55.2613C27.8982 53.0109 29.7359 51.1543 31.9634 51.1543C34.1909 51.1543 36.0285 53.0109 36.0285 55.2613C36.0842 57.5118 34.2466 59.3684 31.9634 59.3684Z" fill="#FFFDFB"/>
<path d="M59.5842 59.3684C57.3567 59.3684 55.519 57.5118 55.519 55.2613C55.519 53.0109 57.3567 51.1543 59.5842 51.1543C61.8116 51.1543 63.6493 53.0109 63.6493 55.2613C63.6493 57.5118 61.8673 59.3684 59.5842 59.3684Z" fill="#FFFDFB"/>
</svg>

<svg width="91" height="91" fill="none" xmlns="http://www.w3.org/2000/svg"><rect width="91" height="91" rx="45.5" fill="#FAC663"/><path d="M70.833 47.553c-.223-.224-4.455-5.513-13.7-5.682-.89-1.575-4.287-6.695-9.8-6.695h-.167l-2.45-4.726c-.167-.281-.446-.45-.724-.45h-3.787c-.334 0-.612.169-.724.45l-2.227 4.67h-.724c-.223 0-5.458-.394-10.915 6.695h-4.232c-.39 0-.724.281-.835.675-.056.338-1.727 8.44 1.058 11.927.89 1.07 2.06 1.632 3.508 1.632h1.17A5.73 5.73 0 0031.963 61a5.73 5.73 0 005.68-4.951h16.26A5.73 5.73 0 0059.584 61a5.73 5.73 0 005.68-4.951h4.9a.86.86 0 00.836-.844V48.06c0-.169-.056-.394-.167-.507zm-23.5-10.745c3.898 0 6.571 3.263 7.796 5.063H43.045v-5.063h4.288zm-6.571-5.12h2.729l1.782 3.488H39.09l1.67-3.488zm-4.288 5.12h4.956v5.063H27.787c4.51-5.232 8.576-5.063 8.687-5.063zm-4.51 22.56c-2.228 0-4.066-1.856-4.066-4.107 0-2.25 1.838-4.107 4.065-4.107 2.228 0 4.066 1.857 4.066 4.107.055 2.25-1.782 4.107-4.066 4.107zm27.62 0c-2.227 0-4.065-1.856-4.065-4.107 0-2.25 1.838-4.107 4.065-4.107 2.228 0 4.065 1.857 4.065 4.107s-1.782 4.107-4.065 4.107zm9.745-4.95h-4.065a5.73 5.73 0 00-5.68-4.952 5.73 5.73 0 00-5.68 4.951h-16.26a5.73 5.73 0 00-5.68-4.95 5.73 5.73 0 00-5.68 4.95h-1.17c-.947 0-1.67-.337-2.228-1.012-1.726-2.194-1.28-7.314-.835-9.846h34.582c7.74 0 11.805 3.882 12.696 4.839v6.02z" fill="#FFFDFB"/><path d="M40.762 31.688h2.729l1.782 3.488H39.09l1.67-3.488zm-8.799 27.68c-2.227 0-4.065-1.856-4.065-4.107 0-2.25 1.838-4.107 4.065-4.107 2.228 0 4.066 1.857 4.066 4.107.055 2.25-1.782 4.107-4.066 4.107zm27.621 0c-2.227 0-4.065-1.856-4.065-4.107 0-2.25 1.838-4.107 4.065-4.107 2.228 0 4.065 1.857 4.065 4.107s-1.782 4.107-4.065 4.107z" fill="#FFFDFB"/></svg>
